src/assets/images/homepage/flags/france.svg

<svg fill="none" height="112" viewBox="0 0 96 112" width="96" xmlns="http://www.w3.org/2000/svg" xmlns:xlink="http://www.w3.org/1999/xlink"><filter id="a" color-interpolation-filters="sRGB" filterUnits="userSpaceOnUse" height="172" width="156" x="-30" y="-30"><feFlood flood-opacity="0" result="BackgroundImageFix"/><feGaussianBlur in="BackgroundImage" stdDeviation="15"/><feComposite in2="SourceAlpha" operator="in" result="effect1_backgroundBlur"/><feBlend in="SourceGraphic" in2="effect1_backgroundBlur" mode="normal" result="shape"/></filter><linearGradient id="b" gradientUnits="userSpaceOnUse" x1="47.9998" x2="47.9998" y1="120.733" y2="41.6487"><stop offset="0" stop-color="#216935"/><stop offset="1" stop-color="#216935" stop-opacity="0"/></linearGradient><clipPath id="c"><path d="m-6.83398.711426h109.34v111.009h-109.34z"/></clipPath><mask id="d" height="100" maskUnits="userSpaceOnUse" width="86" x="5" y="6"><g fill="none" opacity=".9"><path d="m88.0198 19.0537-35.8095-11.49198c-2.5263-.96268-5.8947-.96269-8.421.00002l-35.80952 11.49196c-1.23761.363-2.08525 1.4769-2.08525 2.7403v42.1372c0 5.4806 2.26941 11.091 6.74477 16.6753 3.4181 4.2649 8.1471 8.5475 14.0552 12.7291 9.9253 7.0244 19.6988 11.3334 20.11 11.5134.3802.167.788.25 1.1957.25s.8154-.083 1.1957-.25c.411-.18 10.1843-4.489 20.1096-11.5134 5.9081-4.1816 10.6369-8.4642 14.0551-12.7291 4.4755-5.5841 6.7445-11.1945 6.7445-16.6753v-42.1372c0-1.2634-.8473-2.3773-2.0853-2.7403z" fill="#24b04b"/><path d="m88.0198 19.0537-35.8095-11.49198c-2.5263-.96268-5.8947-.96269-8.421.00002l-35.80952 11.49196c-1.23761.363-2.08525 1.4769-2.08525 2.7403v42.1372c0 5.4806 2.26941 11.091 6.74477 16.6753 3.4181 4.2649 8.1471 8.5475 14.0552 12.7291 9.9253 7.0244 19.6988 11.3334 20.11 11.5134.3802.167.788.25 1.1957.25s.8154-.083 1.1957-.25c.411-.18 10.1843-4.489 20.1096-11.5134 5.9081-4.1816 10.6369-8.4642 14.0551-12.7291 4.4755-5.5841 6.7445-11.1945 6.7445-16.6753v-42.1372c0-1.2634-.8473-2.3773-2.0853-2.7403z" fill="url(#b)"/></g></mask><g filter="url(#a)"><g mask="url(#d)"><path clip-rule="evenodd" d="m-13.4727 53.8635c0-34.4708 27.5222-62.41208 61.4718-62.41208h.0009c33.9514 0 61.474 27.94128 61.474 62.41208 0 34.4679-27.5223 62.4105-61.474 62.4105-.0003 0-.0006 0-.0009 0-33.9496 0-61.4718-27.9426-61.4718-62.4105z" fill="#fff" fill-rule="evenodd"/><g fill="#d80027"><path d="m104.356 44.5298c0-22.5784-13.0029-42.08731-31.854-51.29897v102.59777c18.8511-9.2115 31.854-28.7204 31.854-51.2988z"/><path d="m-8.35742 44.5298c0 22.5784 13.00282 42.0873 31.85402 51.2989v-102.59787c-18.8512 9.21165-31.85402 28.72057-31.85402 51.29897z"/><path d="m57.7991 51.9579 9.801-4.9522-4.9004-2.476v-4.9522l-9.8012 4.9522 4.9006-9.9044h-4.9006l-4.9007-7.4282-4.9006 7.4282h-4.9006l4.9006 9.9044-9.8013-4.9522v4.9522l-4.9004 2.476 9.8011 4.9522-2.4502 4.9522h9.8012v7.4282h4.9004v-7.4282h9.8013z"/></g><g clip-path="url(#c)"><path d="m47.8358 111.72c30.1933 0 54.6702-24.8499 54.6702-55.5041 0-30.6543-24.4769-55.504474-54.6702-55.504474s-54.66978 24.850174-54.66978 55.504474c0 30.6542 24.47648 55.5041 54.66978 55.5041z" fill="#f0f0f0"/><path d="m102.506 56.2159c0-23.8649-14.8361-44.2097-35.6544-52.05208v104.10418c20.8183-7.842 35.6544-28.1871 35.6544-52.0521z" fill="#d80027"/><path d="m-6.83398 56.2159c0 23.865 14.83622 44.2101 35.65428 52.0521v-104.10418c-20.81806 7.84238-35.65428 28.18718-35.65428 52.05208z" fill="#0052b4"/></g></g><path d="m93.4701 14.3981-.0001.0002.0122.0035c1.2044.3531 2.0178 1.4319 2.0178 2.6438v48.0296c0 6.1029-2.526 12.3909-7.5788 18.6945-3.8599 4.8154-9.2129 9.6662-15.9216 14.4137-11.2742 7.9786-22.3801 12.8736-22.8365 13.0736h-.0003c-.3691.162-.7654.243-1.1624.243-.3967 0-.7932-.081-1.1625-.243h-.0002c-.4566-.2-11.5627-5.095-22.8369-13.0736-6.7087-4.7475-12.0618-9.5983-15.92157-14.4137-5.0528-6.3038-7.57923-12.5918-7.57923-18.6945v-48.0296c0-1.2118.81375-2.2907 2.01788-2.6438l.00005.0002.01202-.0039 40.82285-13.09902.0127-.00409.0125-.00477c2.7654-1.053644 6.4786-1.05364 9.244-.00002l.0125.00477.0127.00409z" opacity=".3" stroke="#011949"/></g></svg>

<svg width="96" height="112" viewBox="0 0 96 112" fill="none" xmlns="http://www.w3.org/2000/svg">
<g filter="url(#filter0_b)">
<mask id="mask0" mask-type="alpha" maskUnits="userSpaceOnUse" x="5" y="6" width="86" height="100">
<g opacity="0.9">
<path d="M88.0198 19.0537L52.2103 7.56172C49.684 6.59904 46.3156 6.59903 43.7893 7.56174L7.97978 19.0537C6.74217 19.4167 5.89453 20.5306 5.89453 21.794V63.9312C5.89453 69.4118 8.16394 75.0222 12.6393 80.6065C16.0574 84.8714 20.7864 89.154 26.6945 93.3356C36.6198 100.36 46.3933 104.669 46.8045 104.849C47.1847 105.016 47.5925 105.099 48.0002 105.099C48.4079 105.099 48.8156 105.016 49.1959 104.849C49.6069 104.669 59.3802 100.36 69.3055 93.3356C75.2136 89.154 79.9424 84.8714 83.3606 80.6065C87.8361 75.0224 90.1051 69.412 90.1051 63.9312V21.794C90.1051 20.5306 89.2578 19.4167 88.0198 19.0537Z" fill="#24B04B"/>
<path d="M88.0198 19.0537L52.2103 7.56172C49.684 6.59904 46.3156 6.59903 43.7893 7.56174L7.97978 19.0537C6.74217 19.4167 5.89453 20.5306 5.89453 21.794V63.9312C5.89453 69.4118 8.16394 75.0222 12.6393 80.6065C16.0574 84.8714 20.7864 89.154 26.6945 93.3356C36.6198 100.36 46.3933 104.669 46.8045 104.849C47.1847 105.016 47.5925 105.099 48.0002 105.099C48.4079 105.099 48.8156 105.016 49.1959 104.849C49.6069 104.669 59.3802 100.36 69.3055 93.3356C75.2136 89.154 79.9424 84.8714 83.3606 80.6065C87.8361 75.0224 90.1051 69.412 90.1051 63.9312V21.794C90.1051 20.5306 89.2578 19.4167 88.0198 19.0537Z" fill="url(#paint0_linear)"/>
</g>
</mask>
<g mask="url(#mask0)">
<path fill-rule="evenodd" clip-rule="evenodd" d="M-13.4727 53.8635C-13.4727 19.3927 14.0495 -8.54858 47.9991 -8.54858C47.9994 -8.54858 47.9997 -8.54858 48 -8.54858C81.9514 -8.54858 109.474 19.3927 109.474 53.8635C109.474 88.3314 81.9517 116.274 48 116.274C47.9997 116.274 47.9994 116.274 47.9991 116.274C14.0495 116.274 -13.4727 88.3314 -13.4727 53.8635Z" fill="white"/>
<path d="M104.356 44.5298C104.356 21.9514 91.3531 2.44249 72.502 -6.76917V95.8286C91.3531 86.6171 104.356 67.1082 104.356 44.5298Z" fill="#D80027"/>
<path d="M-8.35742 44.5298C-8.35742 67.1082 4.6454 86.6171 23.4966 95.8287V-6.76917C4.6454 2.44248 -8.35742 21.9514 -8.35742 44.5298Z" fill="#D80027"/>
<path d="M57.7991 51.9579L67.6001 47.0057L62.6997 44.5297V39.5775L52.8985 44.5297L57.7991 34.6253H52.8985L47.9978 27.1971L43.0972 34.6253H38.1966L43.0972 44.5297L33.2959 39.5775V44.5297L28.3955 47.0057L38.1966 51.9579L35.7464 56.9101H45.5476V64.3383H50.448V56.9101H60.2493L57.7991 51.9579Z" fill="#D80027"/>
<g clip-path="url(#clip0)">
<path d="M47.8358 111.72C78.0291 111.72 102.506 86.8701 102.506 56.2159C102.506 25.5616 78.0291 0.711426 47.8358 0.711426C17.6425 0.711426 -6.83398 25.5616 -6.83398 56.2159C-6.83398 86.8701 17.6425 111.72 47.8358 111.72Z" fill="#F0F0F0"/>
<path d="M102.506 56.2159C102.506 32.351 87.6699 12.0062 66.8516 4.16382V108.268C87.6699 100.426 102.506 80.0809 102.506 56.2159Z" fill="#D80027"/>
<path d="M-6.83398 56.2159C-6.83398 80.0809 8.00224 100.426 28.8203 108.268V4.16382C8.00224 12.0062 -6.83398 32.351 -6.83398 56.2159Z" fill="#0052B4"/>
</g>
</g>
<path opacity="0.3" d="M93.4701 14.3981L93.47 14.3983L93.4822 14.4018C94.6866 14.7549 95.5 15.8337 95.5 17.0456V65.0752C95.5 71.1781 92.974 77.4661 87.9212 83.7697C84.0613 88.5851 78.7083 93.4359 71.9996 98.1834C60.7254 106.162 49.6195 111.057 49.1631 111.257L49.1628 111.257C48.7937 111.419 48.3974 111.5 48.0004 111.5C47.6037 111.5 47.2072 111.419 46.8379 111.257L46.8377 111.257C46.3811 111.057 35.275 106.162 24.0008 98.1834C17.2921 93.4359 11.939 88.5851 8.07923 83.7697C3.02643 77.4659 0.5 71.1779 0.5 65.0752V17.0456C0.5 15.8338 1.31375 14.7549 2.51788 14.4018L2.51793 14.402L2.52995 14.3981L43.3528 1.29908L43.3655 1.29499L43.378 1.29022C46.1434 0.236576 49.8566 0.23658 52.622 1.2902L52.6345 1.29497L52.6472 1.29906L93.4701 14.3981Z" stroke="#011949"/>
</g>
<defs>
<filter id="filter0_b" x="-30" y="-30" width="156" height="172" filterUnits="userSpaceOnUse" color-interpolation-filters="sRGB">
<feFlood flood-opacity="0" result="BackgroundImageFix"/>
<feGaussianBlur in="BackgroundImage" stdDeviation="15"/>
<feComposite in2="SourceAlpha" operator="in" result="effect1_backgroundBlur"/>
<feBlend mode="normal" in="SourceGraphic" in2="effect1_backgroundBlur" result="shape"/>
</filter>
<linearGradient id="paint0_linear" x1="47.9998" y1="120.733" x2="47.9998" y2="41.6487" gradientUnits="userSpaceOnUse">
<stop stop-color="#216935"/>
<stop offset="1" stop-color="#216935" stop-opacity="0"/>
</linearGradient>
<clipPath id="clip0">
<rect x="-6.83398" y="0.711426" width="109.34" height="111.009" fill="white"/>
</clipPath>
</defs>
</svg>
